icons/pain_managment.svg

<svg width="48" height="48" viewBox="0 0 48 48" fill="none" xmlns="http://www.w3.org/2000/svg">
<path fill-rule="evenodd" clip-rule="evenodd" d="M39 8H9C8.44771 8 8 8.44772 8 9V39C8 39.5523 8.44772 40 9 40H39C39.5523 40 40 39.5523 40 39V9C40 8.44771 39.5523 8 39 8ZM9 6C7.34315 6 6 7.34315 6 9V39C6 40.6569 7.34315 42 9 42H39C40.6569 42 42 40.6569 42 39V9C42 7.34315 40.6569 6 39 6H9Z" fill="black"/>
<path fill-rule="evenodd" clip-rule="evenodd" d="M20.0455 37.9968C19.6547 37.9594 19.367 37.5995 19.403 37.193L19.9734 30.7501L22.8481 32.3318L23.5095 28.1974C23.5739 27.7947 23.94 27.5226 24.3272 27.5896C24.7143 27.6566 24.976 28.0374 24.9116 28.44L23.9265 34.5977L21.1933 33.0938L20.8184 37.3286C20.7824 37.7351 20.4364 38.0343 20.0455 37.9968Z" fill="black"/>
<path fill-rule="evenodd" clip-rule="evenodd" d="M10.0904 28.0579C9.89896 27.7016 10.0215 27.2513 10.3641 27.0521L16.0088 23.7713L16.3987 27.2875L20.267 25.4104C20.6227 25.2378 21.0455 25.3978 21.2115 25.7677C21.3775 26.1376 21.2236 26.5775 20.868 26.7501L15.2127 29.4944L14.8411 26.1435L11.0575 28.3426C10.7149 28.5417 10.2819 28.4143 10.0904 28.0579Z" fill="black"/>
<path fill-rule="evenodd" clip-rule="evenodd" d="M13.3939 13.1262C13.5976 12.7773 14.0347 12.6661 14.3702 12.8779L20.032 16.4519L17.2053 18.5978L20.8072 21.2641C21.127 21.5008 21.2017 21.9623 20.9742 22.2949C20.7466 22.6275 20.3028 22.7052 19.9831 22.4685L14.7745 18.6129L17.472 16.5651L13.6327 14.1416C13.2972 13.9298 13.1903 13.4752 13.3939 13.1262Z" fill="black"/>
<path fill-rule="evenodd" clip-rule="evenodd" d="M28.9593 10.0114C29.3458 10.0822 29.6039 10.4656 29.5358 10.8676L28.4677 17.1669L25.7653 15.368L24.7946 19.3619C24.6984 19.7577 24.3119 19.9974 23.9314 19.8974C23.5509 19.7973 23.3204 19.3954 23.4165 18.9996L24.8705 13.0172L27.4382 14.7264L28.136 10.6109C28.2042 10.2089 28.5728 9.94046 28.9593 10.0114Z" fill="black"/>
<path fill-rule="evenodd" clip-rule="evenodd" d="M37.9123 20.3784C38.101 20.7363 37.9751 21.1856 37.631 21.382L32.2191 24.4694L31.8752 21.137L28.2528 22.8587C27.8959 23.0284 27.4742 22.8649 27.3111 22.4936C27.1479 22.1223 27.3051 21.6838 27.6621 21.5141L33.078 18.9399L33.4048 22.1068L36.9474 20.0858C37.2915 19.8895 37.7235 20.0205 37.9123 20.3784Z" fill="black"/>
<path fill-rule="evenodd" clip-rule="evenodd" d="M34.2238 33.7761C34.0201 34.1251 33.5831 34.2363 33.2475 34.0245L27.9044 30.6517L30.5458 28.6464L27.2394 26.1989C26.9196 25.9621 26.8449 25.5006 27.0725 25.1681C27.3001 24.8355 27.7438 24.7577 28.0636 24.9944L32.9766 28.6313L30.4644 30.5384L33.985 32.7607C34.3205 32.9725 34.4274 33.4272 34.2238 33.7761Z" fill="black"/>
</svg>

<svg
  xmlns="http://www.w3.org/2000/svg"
  width="24"
  height="24"
  viewBox="0 0 24 24"
  fill="none"
  stroke="currentColor"
  stroke-width="2"
  stroke-linecap="round"
  stroke-linejoin="round"
>
  <path
    fill-rule="evenodd"
    d="M39 8H9a1 1 0 0 0-1 1v30a1 1 0 0 0 1 1h30a1 1 0 0 0 1-1V9a1 1 0 0 0-1-1M9 6a3 3 0 0 0-3 3v30a3 3 0 0 0 3 3h30a3 3 0 0 0 3-3V9a3 3 0 0 0-3-3z"
    clip-rule="evenodd"
  />
  <path
    fill-rule="evenodd"
    d="M20.046 37.997c-.391-.038-.679-.398-.643-.804l.57-6.443 2.875 1.582.662-4.135a.714.714 0 0 1 .817-.607c.387.067.649.447.585.85l-.985 6.158-2.734-1.504-.375 4.235a.72.72 0 0 1-.773.668"
    clip-rule="evenodd"
  />
  <path
    fill-rule="evenodd"
    d="M10.09 28.058a.755.755 0 0 1 .274-1.006l5.645-3.28.39 3.516 3.868-1.878a.7.7 0 0 1 .945.358c.166.37.012.81-.344.982l-5.655 2.744-.372-3.35-3.783 2.199a.696.696 0 0 1-.968-.285"
    clip-rule="evenodd"
  />
  <path
    fill-rule="evenodd"
    d="M13.394 13.126a.695.695 0 0 1 .976-.248l5.662 3.574-2.827 2.146 3.602 2.666c.32.237.395.698.167 1.03a.693.693 0 0 1-.99.174l-5.21-3.855 2.698-2.048-3.84-2.423a.756.756 0 0 1-.238-1.016"
    clip-rule="evenodd"
  />
  <path
    fill-rule="evenodd"
    d="M28.96 10.011c.386.071.644.455.576.857l-1.068 6.299-2.703-1.799-.97 3.994a.71.71 0 0 1-.864.535.74.74 0 0 1-.515-.897l1.454-5.983 2.568 1.71.698-4.116a.714.714 0 0 1 .823-.6"
    clip-rule="evenodd"
  />
  <path
    fill-rule="evenodd"
    d="M37.912 20.378a.755.755 0 0 1-.281 1.004l-5.412 3.087-.344-3.332-3.622 1.722a.7.7 0 0 1-.942-.365.75.75 0 0 1 .351-.98l5.416-2.574.327 3.167 3.542-2.021a.697.697 0 0 1 .965.292"
    clip-rule="evenodd"
  />
  <path
    fill-rule="evenodd"
    d="M34.224 33.776a.695.695 0 0 1-.976.248l-5.344-3.372 2.642-2.006-3.307-2.447a.76.76 0 0 1-.166-1.03.693.693 0 0 1 .99-.175l4.914 3.637-2.513 1.907 3.521 2.223a.756.756 0 0 1 .239 1.015"
    clip-rule="evenodd"
  />
</svg>
